frontend/src/assets/stain.svg

<svg width="512" height="512" viewBox="0 0 512 512" fill="none" xmlns="http://www.w3.org/2000/svg">
<g clip-path="url(#clip0)">
<path d="M189.935 201.29C210.57 228.374 167.905 272.757 134.881 231.225C95.4829 181.677 52.6439 183.741 47.4829 226.064C42.3539 268.125 108.875 267.219 124.663 298.838C139.009 327.569 78.6889 349.536 92.2139 408.773C109.418 484.128 204.386 474.838 227.096 430.45C277.909 331.134 330.322 397.418 349.591 418.063C390.302 461.682 490.607 407.978 415.656 338.579C378.495 304.17 384.946 269.311 413.697 249.289C460.387 216.773 418.065 163.095 385.033 179.612C376.24 184.008 369.033 198.193 352.001 202.838C337.146 206.889 320.123 198.093 317.936 184.429C312.431 150.02 363.881 124.358 359.226 94.4501C352.344 50.2351 287.656 42.6651 282.839 88.0841C277.582 137.652 256.794 158.45 223.761 141.933C198.987 129.546 178.757 135.753 171.355 156.901C164.129 177.548 181.677 190.452 189.935 201.29Z" fill="#361B23" fill-opacity="0.98"/>
<path d="M413.697 249.29C460.388 216.774 418.065 163.096 385.033 179.613C376.24 184.009 369.033 198.194 352.001 202.839C349.067 203.639 346.06 203.809 343.088 203.668C337.225 214.491 330.1 225.64 314.496 236.043C291.786 251.183 256.002 239.484 256.002 198.194C256.002 156.904 213.335 152.775 203.013 179.613C199.645 188.37 198.53 195.906 189.566 200.827C189.686 200.981 189.821 201.138 189.937 201.291C210.572 228.375 167.907 272.758 134.883 231.226C127.35 221.752 119.695 214.197 112.198 208.418C83.0952 215.87 70.8352 242.927 78.5422 266.519C96.4322 275.437 116.816 283.119 124.665 298.839C139.011 327.57 78.6912 349.537 92.2162 408.774C96.1852 426.158 104.321 438.986 114.726 447.969C163.092 473.864 201.002 411.682 222.969 363.355C243.614 317.936 304.138 326.141 326.883 360.602C349.593 395.011 395.912 388.5 398.453 351.656C398.971 344.146 401.564 336.074 405.481 327.755C380.2 297.023 387.962 267.212 413.697 249.29Z" fill="#451F2B" fill-opacity="0.98"/>
<path d="M31.9032 0.0268936C3.51616 1.05889 -13.2218 36.5289 13.3222 68.1559C37.5802 97.0589 76.2902 110.995 89.7092 90.8659C104.004 69.4239 76.3352 -1.58911 31.9032 0.0268936Z" fill="#280912" fill-opacity="0.72"/>
<path d="M184.323 16.4519C163.074 21.6849 158.844 46.5819 179.628 62.3929C199.37 77.4119 211.302 67.5449 212.264 53.2659C212.819 45.0268 205.393 11.2629 184.323 16.4519Z" fill="#280912" fill-opacity="0.72"/>
<path d="M441.025 62.6138C413.174 66.9958 404.858 126.622 430.58 122.111C456.302 117.6 486.983 55.3828 441.025 62.6138Z" fill="#280912" fill-opacity="0.72"/>
<path d="M509.963 495.182C523.376 466.401 466.568 440.739 455.792 473.382C446.922 500.249 492.671 532.285 509.963 495.182Z" fill="#280912" fill-opacity="0.72"/>
</g>
<defs>
<clipPath id="clip0">
<rect width="512" height="512" fill="white"/>
</clipPath>
</defs>
</svg>

<?xml version="1.0" encoding="iso-8859-1"?>
<!-- Generator: Adobe Illustrator 19.0.0, SVG Export Plug-In . SVG Version: 6.00 Build 0)  -->
<svg version="1.1" id="Capa_1" xmlns="http://www.w3.org/2000/svg" xmlns:xlink="http://www.w3.org/1999/xlink" x="0px" y="0px"
	 viewBox="0 0 512 512" style="enable-background:new 0 0 512 512;" xml:space="preserve">
<path style="fill:#D23C69;" d="M189.935,201.29c20.635,27.084-22.03,71.467-55.054,29.935
	c-39.398-49.548-82.237-47.484-87.398-5.161c-5.129,42.061,61.392,41.155,77.18,72.774c14.346,28.731-45.974,50.698-32.449,109.935
	c17.204,75.355,112.172,66.065,134.882,21.677c50.813-99.316,103.226-33.032,122.495-12.387
	c40.711,43.619,141.016-10.085,66.065-79.484c-37.161-34.409-30.71-69.268-1.959-89.29c46.69-32.516,4.368-86.194-28.664-69.677
	c-8.793,4.396-16,18.581-33.032,23.226c-14.855,4.051-31.878-4.745-34.065-18.409c-5.505-34.409,45.945-60.071,41.29-89.979
	c-6.882-44.215-71.57-51.785-76.387-6.366c-5.257,49.568-26.045,70.366-59.078,53.849c-24.774-12.387-45.004-6.18-52.406,14.968
	C164.129,177.548,181.677,190.452,189.935,201.29z"/>
<path style="fill:#B4285A;" d="M413.697,249.29c46.691-32.516,4.368-86.194-28.664-69.677c-8.793,4.396-16,18.581-33.032,23.226
	c-2.934,0.8-5.941,0.97-8.913,0.829c-5.863,10.823-12.988,21.972-28.592,32.375c-22.71,15.14-58.494,3.441-58.494-37.849
	s-42.667-45.419-52.989-18.581c-3.368,8.757-4.483,16.293-13.447,21.214c0.12,0.154,0.255,0.311,0.371,0.464
	c20.635,27.084-22.03,71.467-55.054,29.935c-7.533-9.474-15.188-17.029-22.685-22.808c-29.103,7.452-41.363,34.509-33.656,58.101
	c17.89,8.918,38.274,16.6,46.123,32.32c14.346,28.731-45.974,50.698-32.449,109.935c3.969,17.384,12.105,30.212,22.51,39.195
	c48.366,25.895,86.276-36.287,108.243-84.614c20.645-45.419,81.169-37.214,103.914-2.753c22.71,34.409,69.029,27.898,71.57-8.946
	c0.518-7.51,3.111-15.582,7.028-23.901C380.2,297.023,387.962,267.212,413.697,249.29z"/>
<g>
	<path style="fill:#D23C69;" d="M31.903,0.027C3.516,1.059-13.222,36.529,13.322,68.156c24.258,28.903,62.968,42.839,76.387,22.71
		C104.004,69.424,76.335-1.589,31.903,0.027z"/>
	<path style="fill:#D23C69;" d="M184.323,16.452c-21.249,5.233-25.479,30.13-4.695,45.941c19.742,15.019,31.674,5.152,32.636-9.127
		C212.819,45.027,205.393,11.263,184.323,16.452z"/>
	<path style="fill:#D23C69;" d="M441.025,62.614c-27.851,4.382-36.167,64.008-10.445,59.497
		C456.302,117.6,486.983,55.383,441.025,62.614z"/>
	<path style="fill:#D23C69;" d="M509.963,495.182c13.413-28.781-43.395-54.443-54.171-21.8
		C446.922,500.249,492.671,532.285,509.963,495.182z"/>
</g>
<g>
</g>
<g>
</g>
<g>
</g>
<g>
</g>
<g>
</g>
<g>
</g>
<g>
</g>
<g>
</g>
<g>
</g>
<g>
</g>
<g>
</g>
<g>
</g>
<g>
</g>
<g>
</g>
<g>
</g>
</svg>
